X: 20091
T: EVELEEN'S BOWER, OR CONSTITUTION AND GURRIERE
C:
%R: reel
B: Elias Howe "The Musician's Companion" 1843 p.9 #1
S: http://imslp.org/wiki/The_Musician's_Companion_(Howe,_Elias)
Z: 2015 John Chambers <jc:trillian.mit.edu>
M: C
L: 1/8
K: D
% - - - - - - - - - - - - - - - - - - - - - - - - -
A |\
Addd dcBA | Addd dcBA |\
Addd dfaf | e2A2 A2z |]\
g |\
fefg a2fd | dB AG {G2}F2GA |\
BcdB edcB | A2d2 d2z |]
% - - - - - - - - - - - - - - - - - - - - - - - - -

%%sep 1 1 500

